X: 35503
T: Rudely Re-hired
R: jig
M: 6/8
K: Dmajor
A|:ABe edB|A (3Bcd B2A|GAG GFE|FAF FED|
B2e edB|A (3Bcd B2A|GAG GFE|FED E2A:|
|:B2e ede|f2a afa|bag agf|gfe fed|
ABe ede|f2a afa|bag agf|efd e2d:|
|:B2B BAG|ABd B2A GAG GFE|FAF FED|
B2B BAG|ABd B2A GAG GFE|FED E2A:|

